neru-dark-classic/22x22/status/gser-icon-stopped-symbolic.svg

<svg xmlns="http://www.w3.org/2000/svg" width="22" height="22"><g transform="translate(3 3)" fill="#d1d9e3"><path d="M1 2c-.554 0-1 .446-1 1v10c0 .554.446 1 1 1h14c.554 0 1-.446 1-1V3c0-.554-.446-1-1-1zm4 2a4 4 0 0 1 4 4 4 4 0 0 1-4 4 4 4 0 0 1-4-4 4 4 0 0 1 4-4zm6 1h3a.499.499 0 1 1 0 1h-3a.499.499 0 1 1 0-1zm0 2h3a.499.499 0 1 1 0 1h-3a.499.499 0 1 1 0-1zm0 2h3a.499.499 0 1 1 0 1h-3a.499.499 0 1 1 0-1z"/><circle r="2" cy="8" cx="5" opacity=".3"/></g></svg>

<?xml version="1.0" encoding="UTF-8" standalone="no"?>
<svg
   xmlns:dc="http://purl.org/dc/elements/1.1/"
   xmlns:cc="http://creativecommons.org/ns#"
   xmlns:rdf="http://www.w3.org/1999/02/22-rdf-syntax-ns#"
   xmlns:svg="http://www.w3.org/2000/svg"
   xmlns="http://www.w3.org/2000/svg"
   xmlns:sodipodi="http://sodipodi.sourceforge.net/DTD/sodipodi-0.dtd"
   xmlns:inkscape="http://www.inkscape.org/namespaces/inkscape"
   width="22"
   height="22"
   version="1.1"
   id="svg6"
   sodipodi:docname="gser-icon-stopped-symbolic.svg"
   inkscape:version="0.92.1 r">
  <metadata
     id="metadata12">
    <rdf:RDF>
      <cc:Work
         rdf:about="">
        <dc:format>image/svg+xml</dc:format>
        <dc:type
           rdf:resource="http://purl.org/dc/dcmitype/StillImage" />
      </cc:Work>
    </rdf:RDF>
  </metadata>
  <defs
     id="defs10" />
  <sodipodi:namedview
     pagecolor="#ffffff"
     bordercolor="#666666"
     borderopacity="1"
     objecttolerance="10"
     gridtolerance="10"
     guidetolerance="10"
     inkscape:pageopacity="0"
     inkscape:pageshadow="2"
     inkscape:window-width="769"
     inkscape:window-height="480"
     id="namedview8"
     showgrid="false"
     inkscape:zoom="10.727273"
     inkscape:cx="6.8263042"
     inkscape:cy="11"
     inkscape:window-x="0"
     inkscape:window-y="0"
     inkscape:window-maximized="0"
     inkscape:current-layer="svg6" />
  <g
     id="g4491"
     transform="translate(3,3)">
    <path
       id="path2"
       d="M 1,2 C 0.446,2 0,2.446 0,3 v 10 c 0,0.554 0.446,1 1,1 h 14 c 0.554,0 1,-0.446 1,-1 V 3 C 16,2.446 15.554,2 15,2 Z M 5,4 A 4,4 0 0 1 9,8 4,4 0 0 1 5,12 4,4 0 0 1 1,8 4,4 0 0 1 5,4 Z m 6,1 h 3 c 0.277,0 0.5,0.223 0.5,0.5 C 14.5,5.777 14.277,6 14,6 H 11 C 10.723,6 10.5,5.777 10.5,5.5 10.5,5.223 10.723,5 11,5 Z m 0,2 h 3 c 0.277,0 0.5,0.223 0.5,0.5 C 14.5,7.777 14.277,8 14,8 H 11 C 10.723,8 10.5,7.777 10.5,7.5 10.5,7.223 10.723,7 11,7 Z m 0,2 h 3 c 0.277,0 0.5,0.223 0.5,0.5 0,0.277 -0.223,0.5 -0.5,0.5 H 11 C 10.723,10 10.5,9.777 10.5,9.5 10.5,9.223 10.723,9 11,9 Z"
       style="fill:#d1d9e3"
       inkscape:connector-curvature="0" />
    <circle
       id="circle4"
       r="2"
       cy="8"
       cx="5"
       style="opacity:0.3;fill:#d1d9e3" />
  </g>
</svg>
